X:20
T:June Apple
M:2/2
L:1/8
K:AMix
eg|:"A"ageg ageg|aged cdef|"G"gfef gfef|gagfe2 eg|
"A"ageg ageg|aged cBAA|"G"G2 GA BA G2|1"A"A3 B A2 eg:|2"A"A3 B A2 ed||
:"A"c2 cB A2 AB|c2 cd e2 A2|"G"G2 A2 B c3|"D"d3 e d4|
"A"cdcB A2 AB|cBcd e2 A2|"G"GFGA BA G2|1"A"A3 B A2 ed:|2"A"A6||
